X:5
T:The Old Bush (x3)
D:Matt Molloy & Sean Keane: Contentment is Wealth (1985)
Z:Gwenaël Lambrouin, 2017-02, d'après l'interprétation de Cyrille Gaillard
R:reel
M:2/2
Q:1/2=80
K:Ador
% les do sont naturalisés lors des reprises pour contourner
% un bug lors du playback avec abcj
|: A2GA cAAA | d^cde fde=c | A2GA cAAA | dfed cAdc | 
   A2GA cAAA | d^cde f2fg | afge fde^c |1 dfed =cAd=c :|2 dfed =cAAA |
|: eggg ed^cd | efge cBcd | eggg aage | dfed cAAA | 
   eggg aggg | fffe defg | afge fde^c |1 dfed =cAAA :|2 dfed =cAd=c |
%
|: A2GA cAAA | d^cde fde=c | A2GA cAAA | dfed cAdc | 
   A2GA cAAA | d^cde f2fg | afge fde^c |1 dfed =cAd=c :|2 dfed =cAAA |
|: eggg ed^cd | efge cBcd | eggg aage | dfed cAAA | 
   eggg aggg | fffe defg | afge fde^c |1 dfed =cAAA :|2 dfed =cAd=c |
%
|: A2GA cAAA | d^cde fde=c | A2GA cAAA | dfed cAdc | 
   A2GA cAAA | d^cde f2fg | afge fde^c |1 dfed =cAd=c :|2 dfed =cAAA |
|: eggg ed^cd | efge cBcd | eggg aage | dfed cAAA | 
   eggg aggg | fffe defg | afge fde^c |1 dfed =cAAA :|2 dfed =cAd=c |
%

